X: 20812
T: Johnny Todd
R: hornpipe
M: 4/4
K: Gmajor
D/E/F|:G2GF G3A|B2BA Bcd2|e2e2 dBGA|BAGF E2D/E/F|
G2GF G3A|B2BA Bcd2|e2e2 dBGB|A2G2 G3z:|
e2d2 g2ge|d2de dBG2|Bcd2 B3A|BAGF E2D/E/F|
G2GF G3A|B2BA Bcd2|e2e2 dBGB|1 A2G2 G3z:|2 A2GF G2||

